X:48
T:Waltz in Der Fricthuly
S:John Moore's Book 2
Z:Transcribed Steve Mansfield 04/2021
%%VWML: Moore2-4494-p37-0
F:http://www.vwml.org/record/Moore2/4494/p37
M:3/4
L:1/8
K:G
DGB | edBDGB | edBDGB | dcADFA | cBGDGB | 
edBDGB | edBDGB | dcADFA | G3 :|
|: Adf | bafAdf | bafAdf | ageAce | gfdAdf | 
bafAdf | bafAdf | ageAce | d3 :|

